X:5333
T:Quadrille. CJF.186
O:england
M:6/8
L:1/8
Q:110
S: C.J.Fox MS, 1829/33, Beverley,E.Yorks.
R:Quadrille
A:East Yorkshire
B:Kidson Coll.Mitchell Lib.M1805
K:D
"   $"A|f2fd2d|A2Ad2c|B2Be2d|cBc Ade|f2fd2d|\
A2Ad2c|Bed cBc|e3d2||c/d/|e2e ede|
f2f fdc|B2Be2d|cBc Acd|e2e ede|f2f fdc|B2Be2e|" D. Capo  $"A2B cde||


